humanity-icon-theme/Humanity/actions/22/process-stop.svg

<?xml version="1.0" encoding="UTF-8" standalone="no"?>
<!-- Created with Inkscape (http://www.inkscape.org/) -->

<svg
   xmlns:svg="http://www.w3.org/2000/svg"
   xmlns="http://www.w3.org/2000/svg"
   xmlns:xlink="http://www.w3.org/1999/xlink"
   version="1.0"
   width="22"
   height="22"
   id="svg2">
  <defs
     id="defs4">
    <linearGradient
       id="linearGradient4873">
      <stop
         id="stop4875"
         style="stop-color:white;stop-opacity:1"
         offset="0" />
      <stop
         id="stop4877"
         style="stop-color:white;stop-opacity:0"
         offset="1" />
    </linearGradient>
    <linearGradient
       x1="63.397362"
       y1="-12.489107"
       x2="63.397362"
       y2="5.4675598"
       id="linearGradient2406"
       xlink:href="#linearGradient4873"
       gradientUnits="userSpaceOnUse"
       gradientTransform="matrix(1.0862728,0,0,1.0862481,-56.56661,14.813638)" />
    <linearGradient
       id="linearGradient2490">
      <stop
         id="stop2492"
         style="stop-color:#791235;stop-opacity:1"
         offset="0" />
      <stop
         id="stop2494"
         style="stop-color:#dd3b27;stop-opacity:1"
         offset="1" />
    </linearGradient>
    <linearGradient
       x1="18.379412"
       y1="44.980297"
       x2="18.379412"
       y2="3.0816143"
       id="linearGradient2411"
       xlink:href="#linearGradient2490"
       gradientUnits="userSpaceOnUse"
       gradientTransform="matrix(0.5160413,0,0,0.5160413,-1.384991,-1.3849911)" />
    <linearGradient
       id="linearGradient3242">
      <stop
         id="stop3244"
         style="stop-color:#f8b17e;stop-opacity:1"
         offset="0" />
      <stop
         id="stop3246"
         style="stop-color:#e35d4f;stop-opacity:1"
         offset="0.26238" />
      <stop
         id="stop3248"
         style="stop-color:#c6262e;stop-opacity:1"
         offset="0.66093999" />
      <stop
         id="stop3250"
         style="stop-color:#690b54;stop-opacity:1"
         offset="1" />
    </linearGradient>
    <radialGradient
       cx="23.895569"
       cy="3.9900031"
       r="20.397499"
       fx="23.895569"
       fy="3.9900031"
       id="radialGradient2409"
       xlink:href="#linearGradient3242"
       gradientUnits="userSpaceOnUse"
       gradientTransform="matrix(0,1.2316137,-1.6257082,0,17.486581,-29.720783)" />
  </defs>
  <g
     id="layer1">
    <g
       id="g2502">
      <path
         d="m 11.000002,0.501785 c -5.792553,0 -10.498217,4.7056616 -10.498217,10.498214 0,5.792554 4.705664,10.498219 10.498217,10.498216 5.79255,0 10.498219,-4.705662 10.498213,-10.498216 0,-5.7925524 -4.705663,-10.498214 -10.498213,-10.498214 z"
         id="path2555"
         style="fill:url(#radialGradient2409);fill-opacity:1;stroke:url(#linearGradient2411);stroke-width:1.00365424;stroke-linecap:round;stroke-linejoin:round;stroke-miterlimit:4;stroke-opacity:1;stroke-dasharray:none;stroke-dashoffset:0" />
      <path
         d="m 20.499999,10.999663 c 0,5.246874 -4.253609,9.500336 -9.499879,9.500336 -5.2467526,0 -9.5001201,-4.253509 -9.5001201,-9.500336 0,-5.2466312 4.2533675,-9.4996623 9.5001201,-9.4996623 5.24627,0 9.499879,4.2530311 9.499879,9.4996623 l 0,0 z"
         id="path2463"
         style="opacity:0.4;fill:none;stroke:url(#linearGradient2406);stroke-width:0.99999994;stroke-miterlimit:4;stroke-opacity:1;stroke-dasharray:none" />
    </g>
    <g
       transform="translate(-25.729614,0.02787595)"
       id="g2478">
      <path
         d="m 33.307687,4.9721229 -1.578073,1.5780732 3.255814,3.239203 c 0.100023,0.101284 0.100023,0.2641649 0,0.3654479 l -3.255814,3.239203 1.578073,1.578074 3.239203,-3.239203 c 0.101283,-0.100023 0.264164,-0.100023 0.365448,0 l 3.239203,3.239203 1.578073,-1.578074 -3.239203,-3.239203 c -0.100022,-0.101283 -0.100022,-0.2641639 0,-0.3654479 l 3.239203,-3.239203 -1.578073,-1.5780732 -3.239203,3.2392028 c -0.101284,0.1000229 -0.264165,0.1000229 -0.365448,0 L 33.307687,4.9721229 z"
         id="path3243"
         style="opacity:0.2;fill:black;fill-opacity:1;fill-rule:evenodd;stroke:none" />
      <path
         d="m 33.307687,5.9721242 -1.578073,1.578073 3.255814,3.2392018 c 0.100023,0.101284 0.100023,0.264165 0,0.365449 l -3.255814,3.239203 1.578073,1.578073 3.239203,-3.239203 c 0.101283,-0.100023 0.264164,-0.100023 0.365448,0 l 3.239203,3.239203 1.578073,-1.578073 -3.239203,-3.239203 c -0.100022,-0.101284 -0.100022,-0.264165 0,-0.365449 l 3.239203,-3.2392018 -1.578073,-1.578073 -3.239203,3.2392019 c -0.101284,0.100023 -0.264165,0.100023 -0.365448,0 L 33.307687,5.9721242 z"
         id="path3256"
         style="fill:white;fill-opacity:1;fill-rule:evenodd;stroke:none" />
    </g>
  </g>
</svg>

<?xml version="1.0" encoding="UTF-8" standalone="no"?>
<!-- Created with Inkscape (http://www.inkscape.org/) -->
<svg
   xmlns:svg="http://www.w3.org/2000/svg"
   xmlns="http://www.w3.org/2000/svg"
   xmlns:xlink="http://www.w3.org/1999/xlink"
   version="1.0"
   width="22"
   height="22"
   id="svg2">
  <defs
     id="defs4">
    <linearGradient
       id="linearGradient4873">
      <stop
         id="stop4875"
         style="stop-color:#ffffff;stop-opacity:1"
         offset="0" />
      <stop
         id="stop4877"
         style="stop-color:#ffffff;stop-opacity:0"
         offset="1" />
    </linearGradient>
    <linearGradient
       x1="63.397362"
       y1="-12.489107"
       x2="63.397362"
       y2="5.4675598"
       id="linearGradient2406"
       xlink:href="#linearGradient4873"
       gradientUnits="userSpaceOnUse"
       gradientTransform="matrix(1.0862728,0,0,1.0862481,-56.56661,14.813638)" />
    <linearGradient
       id="linearGradient2490">
      <stop
         id="stop2492"
         style="stop-color:#791235;stop-opacity:1"
         offset="0" />
      <stop
         id="stop2494"
         style="stop-color:#dd3b27;stop-opacity:1"
         offset="1" />
    </linearGradient>
    <linearGradient
       x1="18.379412"
       y1="44.980297"
       x2="18.379412"
       y2="3.0816143"
       id="linearGradient2411"
       xlink:href="#linearGradient2490"
       gradientUnits="userSpaceOnUse"
       gradientTransform="matrix(0.5160413,0,0,0.5160413,-1.384991,-1.3849911)" />
    <linearGradient
       id="linearGradient3242">
      <stop
         id="stop3244"
         style="stop-color:#f8b17e;stop-opacity:1"
         offset="0" />
      <stop
         id="stop3246"
         style="stop-color:#e35d4f;stop-opacity:1"
         offset="0.26238" />
      <stop
         id="stop3248"
         style="stop-color:#c6262e;stop-opacity:1"
         offset="0.66093999" />
      <stop
         id="stop3250"
         style="stop-color:#690b54;stop-opacity:1"
         offset="1" />
    </linearGradient>
    <radialGradient
       cx="23.895569"
       cy="3.9900031"
       r="20.397499"
       fx="23.895569"
       fy="3.9900031"
       id="radialGradient2409"
       xlink:href="#linearGradient3242"
       gradientUnits="userSpaceOnUse"
       gradientTransform="matrix(0,1.2316137,-1.6257082,0,17.486581,-29.720783)" />
  </defs>
  <g
     id="layer1">
    <g
       id="g2502">
      <path
         d="M 11.000002,0.501785 C 5.207449,0.501785 0.501785,5.2074466 0.501785,10.999999 C 0.501785,16.792553 5.207449,21.498218 11.000002,21.498215 C 16.792552,21.498215 21.498221,16.792553 21.498215,10.999999 C 21.498215,5.2074466 16.792552,0.501785 11.000002,0.501785 z"
         id="path2555"
         style="fill:url(#radialGradient2409);fill-opacity:1;stroke:url(#linearGradient2411);stroke-width:1.00365424;stroke-linecap:round;stroke-linejoin:round;stroke-miterlimit:4;stroke-dasharray:none;stroke-dashoffset:0;stroke-opacity:1" />
      <path
         d="M 20.499999,10.999663 C 20.499999,16.246537 16.24639,20.499999 11.00012,20.499999 C 5.7533674,20.499999 1.4999999,16.24649 1.4999999,10.999663 C 1.4999999,5.7530318 5.7533674,1.5000007 11.00012,1.5000007 C 16.24639,1.5000007 20.499999,5.7530318 20.499999,10.999663 L 20.499999,10.999663 z"
         id="path2463"
         style="opacity:0.4;fill:none;fill-opacity:1;fill-rule:nonzero;stroke:url(#linearGradient2406);stroke-width:0.99999994;stroke-miterlimit:4;stroke-dasharray:none;stroke-opacity:1" />
    </g>
    <g
       transform="translate(-25.729614,2.7875946e-2)"
       id="g2478">
      <path
         d="M 33.307687,4.9721229 L 31.729614,6.5501961 L 34.985428,9.7893991 C 35.085451,9.8906831 35.085451,10.053564 34.985428,10.154847 L 31.729614,13.39405 L 33.307687,14.972124 L 36.54689,11.732921 C 36.648173,11.632898 36.811054,11.632898 36.912338,11.732921 L 40.151541,14.972124 L 41.729614,13.39405 L 38.490411,10.154847 C 38.390389,10.053564 38.390389,9.8906831 38.490411,9.7893991 L 41.729614,6.5501961 L 40.151541,4.9721229 L 36.912338,8.2113257 C 36.811054,8.3113486 36.648173,8.3113486 36.54689,8.2113257 L 33.307687,4.9721229 z"
         id="path3243"
         style="opacity:0.2;fill:#000000;fill-opacity:1;fill-rule:evenodd;stroke:none;stroke-width:1;stroke-linecap:round;stroke-linejoin:round;stroke-miterlimit:4;stroke-dasharray:none;stroke-opacity:1" />
      <path
         d="M 33.307687,5.9721242 L 31.729614,7.5501972 L 34.985428,10.789399 C 35.085451,10.890683 35.085451,11.053564 34.985428,11.154848 L 31.729614,14.394051 L 33.307687,15.972124 L 36.54689,12.732921 C 36.648173,12.632898 36.811054,12.632898 36.912338,12.732921 L 40.151541,15.972124 L 41.729614,14.394051 L 38.490411,11.154848 C 38.390389,11.053564 38.390389,10.890683 38.490411,10.789399 L 41.729614,7.5501972 L 40.151541,5.9721242 L 36.912338,9.2113261 C 36.811054,9.3113491 36.648173,9.3113491 36.54689,9.2113261 L 33.307687,5.9721242 z"
         id="path3256"
         style="fill:#ffffff;fill-opacity:1;fill-rule:evenodd;stroke:none;stroke-width:1;stroke-linecap:round;stroke-linejoin:round;stroke-miterlimit:4;stroke-dasharray:none;stroke-opacity:1" />
    </g>
  </g>
</svg>
